src/assets/metronic/worbby/global/img/social-in.svg

<?xml version="1.0" encoding="UTF-8"?>
<svg width="40px" height="40px" viewBox="0 0 40 40" version="1.1" xmlns="http://www.w3.org/2000/svg" xmlns:xlink="http://www.w3.org/1999/xlink">
    <!-- Generator: Sketch 41.2 (35397) - http://www.bohemiancoding.com/sketch -->
    <title>social-in</title>
    <desc>Created with Sketch.</desc>
    <defs>
        <path d="M0,20 C0,8.954305 8.95187636,0 20,0 L20,0 C31.045695,0 40,8.95187636 40,20 L40,20 C40,31.045695 31.0481236,40 20,40 L20,40 C8.954305,40 0,31.0481236 0,20 L0,20 Z" id="path-1"></path>
        <mask id="mask-2" maskContentUnits="userSpaceOnUse" maskUnits="objectBoundingBox" x="0" y="0" width="40" height="40" fill="white">
            <use xlink:href="#path-1"></use>
        </mask>
    </defs>
    <g id="Desktop" stroke="none" stroke-width="1" fill="none" fill-rule="evenodd">
        <g id="Desktop-Needor-Worbbior-Profile" transform="translate(-1185.000000, -1013.000000)">
            <g id="social-in" transform="translate(1185.000000, 1013.000000)">
                <use id="Rectangle-4-Copy-5" stroke="#1E2225" mask="url(#mask-2)" stroke-width="2" xlink:href="#path-1"></use>
                <path d="M15.8592207,17.2776901 L12.2154644,17.2776901 L12.2154644,28.2256654 L15.8592207,28.2256654 L15.8592207,17.2776901 Z M16.0992077,13.8910397 C16.0755583,12.8175976 15.3079346,12 14.0614286,12 C12.8149225,12 12,12.8175976 12,13.8910397 C12,14.942247 12.7908364,15.7833873 14.0141297,15.7833873 L14.0374153,15.7833873 C15.3079346,15.7833873 16.0992077,14.942247 16.0992077,13.8910397 Z M29,21.9484309 C29,18.5856865 27.2024262,17.0206104 24.8046665,17.0206104 C22.8700716,17.0206104 22.0039209,18.0832258 21.5203085,18.8286696 L21.5203085,17.2779807 L17.8761156,17.2779807 C17.9241421,18.3052821 17.8761156,28.225956 17.8761156,28.225956 L21.5203085,28.225956 L21.5203085,22.1117034 C21.5203085,21.7845045 21.5439579,21.4581049 21.640302,21.2238412 C21.9036474,20.57017 22.503251,19.8933922 23.5099156,19.8933922 C24.8289709,19.8933922 25.3562437,20.8972963 25.3562437,22.3684924 L25.3562437,28.2256654 L28.9998545,28.2256654 L29,21.9484309 Z" id="Shape" fill="#0077B5"></path>
            </g>
        </g>
    </g>
</svg>

<svg xmlns="http://www.w3.org/2000/svg" width="40" height="40" xmlns:xlink="http://www.w3.org/1999/xlink"><defs><path id="a" d="M0 20C0 8.9543 8.952 0 20 0c11.0457 0 20 8.952 20 20 0 11.0457-8.952 20-20 20C8.9543 40 0 31.048 0 20z"/><mask id="b" width="40" height="40" x="0" y="0" fill="#fff"><use xlink:href="#a"/></mask></defs><g fill="none" fill-rule="evenodd"><use stroke="#1E2225" stroke-width="2" mask="url(#b)" xlink:href="#a"/><path fill="#0077B5" d="M15.8592 17.2777h-3.6437v10.948h3.6437v-10.948zm.24-3.3867C16.0756 12.8176 15.308 12 14.0614 12 12.815 12 12 12.8176 12 13.891c0 1.0512.7908 1.8924 2.014 1.8924h.0234c1.2705 0 2.0618-.8412 2.0618-1.8924zM29 21.9484c0-3.3627-1.7976-4.9278-4.1953-4.9278-1.9346 0-2.8008 1.0626-3.2844 1.808V17.278H17.876c.048 1.0273 0 10.948 0 10.948h3.6443v-6.1143c0-.3272.0237-.6536.12-.888.2633-.6535.863-1.3303 1.8696-1.3303 1.319 0 1.8462 1.004 1.8462 2.475v5.8573H29v-6.2773z"/></g></svg>
